img/Viber.svg

<svg width="29" height="30" viewBox="0 0 29 30" fill="none" xmlns="http://www.w3.org/2000/svg">
<path d="M25.2396 2.92125C24.4956 2.23579 21.4842 0.0505185 14.7702 0.0212253C14.7702 0.0212253 6.85522 -0.453324 3.00023 3.08529C0.85597 5.22956 0.100205 8.37564 0.0181842 12.2716C-0.0638368 16.1676 -0.163434 23.4675 6.87279 25.4477H6.87865L6.87279 28.4708C6.87279 28.4708 6.82592 29.6952 7.63441 29.9413C8.60695 30.2459 9.1811 29.3144 10.1126 28.3126C10.6223 27.7619 11.3254 26.9534 11.8585 26.3382C16.6743 26.7425 20.3711 25.8168 20.7929 25.6821C21.7655 25.3657 27.2667 24.6627 28.1572 17.3628C29.0829 9.82859 27.712 5.07137 25.2396 2.92125ZM26.054 16.8121C25.2982 22.9051 20.8398 23.2917 20.0196 23.5554C19.6681 23.6667 16.4165 24.4752 12.333 24.2115C12.333 24.2115 9.28655 27.8849 8.33745 28.8399C8.02694 29.1504 7.68714 29.1211 7.693 28.5059C7.693 28.1017 7.71643 23.4851 7.71643 23.4851C7.71058 23.4851 7.71058 23.4851 7.71643 23.4851C1.75234 21.8329 2.10386 15.6169 2.1683 12.3654C2.23275 9.11383 2.84791 6.44815 4.66408 4.65541C7.92735 1.6968 14.6472 2.13619 14.6472 2.13619C20.3242 2.15963 23.0426 3.87035 23.6754 4.4445C25.7669 6.23724 26.8332 10.5258 26.054 16.8121ZM17.9105 12.0783C17.9339 12.5821 17.1781 12.6173 17.1547 12.1135C17.0903 10.8246 16.4868 10.1977 15.2448 10.1274C14.7409 10.0981 14.7878 9.34232 15.2858 9.37161C16.9204 9.45949 17.8284 10.3969 17.9105 12.0783ZM19.0998 12.7403C19.1584 10.2563 17.6058 8.3112 14.6589 8.09443C14.1609 8.05928 14.2137 7.30351 14.7116 7.33867C18.1097 7.58473 19.92 9.92233 19.8555 12.7579C19.8497 13.2617 19.0881 13.2383 19.0998 12.7403ZM21.8533 13.5254C21.8592 14.0292 21.0976 14.0351 21.0976 13.5312C21.0624 8.75646 17.8812 6.15522 14.0203 6.12593C13.5223 6.12007 13.5223 5.37016 14.0203 5.37016C18.3381 5.39946 21.8123 8.3815 21.8533 13.5254ZM21.1913 19.2727V19.2844C20.5586 20.3976 19.3751 21.6279 18.1565 21.2354L18.1448 21.2178C16.9086 20.8721 13.9969 19.3723 12.1573 17.9076C11.2082 17.1577 10.3411 16.2731 9.67322 15.4236C9.06978 14.6678 8.46048 13.7715 7.86876 12.6935C6.62087 10.4379 6.34551 9.4302 6.34551 9.4302C5.95299 8.2116 7.17744 7.02816 8.29644 6.39542H8.30816C8.84715 6.11421 9.36271 6.20795 9.70837 6.62391C9.70837 6.62391 10.4348 7.49099 10.7454 7.91867C11.0383 8.31706 11.4308 8.95565 11.6359 9.31303C11.9932 9.95162 11.7706 10.6019 11.4191 10.8714L10.7161 11.4339C10.3587 11.7209 10.4056 12.2541 10.4056 12.2541C10.4056 12.2541 11.4484 16.1969 15.3444 17.1929C15.3444 17.1929 15.8775 17.2398 16.1646 16.8824L16.727 16.1794C16.9965 15.8278 17.6468 15.6052 18.2854 15.9626C19.1466 16.4488 20.2422 17.2046 20.9687 17.8901C21.3788 18.224 21.4725 18.7337 21.1913 19.2727Z" fill="#4C4C4C"/>
</svg>

<svg width="29" height="30" fill="none" xmlns="http://www.w3.org/2000/svg"><path d="M25.24 2.921c-.744-.685-3.756-2.87-10.47-2.9 0 0-7.915-.474-11.77 3.064C.856 5.23.1 8.375.018 12.272c-.082 3.896-.181 11.196 6.855 13.176h.006l-.006 3.023s-.047 1.224.761 1.47c.973.305 1.547-.627 2.479-1.628.51-.551 1.212-1.36 1.745-1.975 4.816.404 8.513-.521 8.935-.656.973-.316 6.474-1.02 7.364-8.32.926-7.533-.445-12.29-2.917-14.44zm.814 13.891c-.756 6.093-5.214 6.48-6.034 6.743-.352.112-3.604.92-7.687.657 0 0-3.046 3.673-3.996 4.628-.31.31-.65.281-.644-.334 0-.404.023-5.02.023-5.02-.005 0-.005 0 0 0-5.964-1.653-5.612-7.87-5.548-11.12.065-3.252.68-5.918 2.496-7.71 3.263-2.96 9.983-2.52 9.983-2.52 5.677.024 8.396 1.734 9.028 2.308 2.092 1.793 3.158 6.082 2.379 12.368zm-8.143-4.734c.023.504-.733.54-.756.036-.065-1.29-.668-1.916-1.91-1.987-.504-.029-.457-.785.04-.755 1.635.087 2.543 1.025 2.625 2.706zm1.189.662c.058-2.484-1.494-4.429-4.441-4.646-.498-.035-.445-.79.053-.755 3.398.246 5.208 2.583 5.143 5.419-.005.504-.767.48-.755-.018zm2.753.785c.006.504-.755.51-.755.006-.036-4.775-3.217-7.376-7.078-7.405-.498-.006-.498-.756 0-.756 4.318.03 7.792 3.012 7.833 8.155zm-.662 5.748v.011c-.632 1.114-1.816 2.344-3.034 1.951l-.012-.017c-1.236-.346-4.148-1.846-5.988-3.31a15.316 15.316 0 01-2.484-2.484 19.012 19.012 0 01-1.804-2.73C6.62 10.438 6.346 9.43 6.346 9.43c-.393-1.218.831-2.402 1.95-3.035h.012c.54-.28 1.055-.187 1.4.229 0 0 .727.867 1.037 1.295.293.398.686 1.037.89 1.394.358.639.136 1.289-.216 1.558l-.703.563c-.357.287-.31.82-.31.82s1.042 3.943 4.938 4.939c0 0 .534.047.82-.31l.563-.704c.27-.351.92-.574 1.558-.216.862.486 1.957 1.242 2.684 1.927.41.334.503.844.222 1.383z" fill="#4C4C4C"/></svg>
